src/browser/themes/shared/zen-icons/nucleo/media-unmute.svg

#filter dumbComments emptyLines substitution
# This Source Code Form is subject to the terms of the Mozilla Public
# License, v. 2.0. If a copy of the MPL was not distributed with this
# file, You can obtain one at http://mozilla.org/MPL/2.0/.
<svg xmlns="http://www.w3.org/2000/svg" xmlns:xlink="http://www.w3.org/1999/xlink" x="0px" y="0px" width="18px" height="18px" viewBox="0 0 18 18"><path d="M11.35,1.567c-.4-.219-.889-.203-1.273,.044l-5.295,3.389H2.25c-1.241,0-2.25,1.009-2.25,2.25v3.5c0,1.241,1.009,2.25,2.25,2.25h2.531l5.295,3.389c.205,.131,.439,.198,.675,.198,.206,0,.412-.051,.599-.153,.401-.219,.65-.64,.65-1.097V2.664c0-.457-.249-.877-.65-1.097Z" fill="context-fill" fill-opacity="context-fill-opacity"></path><path d="M14.444,7.056c-.293-.293-.769-.293-1.061,0-.293,.293-.293,.768,0,1.061,.236,.236,.366,.55,.366,.884s-.13,.647-.366,.884c-.293,.292-.293,.768,0,1.061,.146,.146,.338,.22,.53,.22s.384-.073,.53-.22c.52-.519,.806-1.209,.806-1.944s-.286-1.425-.806-1.944Z" fill="context-fill" fill-opacity="context-fill-opacity" data-color="color-2"></path><path d="M15.329,5.111c-.293,.293-.293,.768,0,1.061,1.56,1.56,1.56,4.098,0,5.657-.293,.293-.293,.768,0,1.061,.146,.146,.338,.22,.53,.22s.384-.073,.53-.22c1.039-1.039,1.611-2.42,1.611-3.889s-.572-2.851-1.611-3.889c-.293-.293-.768-.293-1.061,0Z" fill="context-fill" fill-opacity="context-fill-opacity" data-color="color-2"></path></svg>

#filter dumbComments emptyLines substitution
# This Source Code Form is subject to the terms of the Mozilla Public
# License, v. 2.0. If a copy of the MPL was not distributed with this
# file, You can obtain one at http://mozilla.org/MPL/2.0/.
<svg fill="context-fill" fill-opacity="context-fill-opacity" width="18px" height="18px" viewBox="0 0 18 18" xmlns="http://www.w3.org/2000/svg" xmlns:svg="http://www.w3.org/2000/svg"><path d="m 15.329,5.111 c -0.293,0.293 -0.293,0.768 0,1.061 1.56,1.56 1.56,4.098 0,5.657 -0.293,0.293 -0.293,0.768 0,1.061 0.146,0.146 0.338,0.22 0.53,0.22 0.192,0 0.384,-0.073 0.53,-0.22 C 17.428,11.851 18,10.47 18,9.001 18,7.532 17.428,6.15 16.389,5.112 c -0.293,-0.293 -0.768,-0.293 -1.061,0 z m -0.885,1.945 c -0.293,-0.293 -0.769,-0.293 -1.061,0 -0.293,0.293 -0.293,0.768 0,1.061 0.236,0.236 0.366,0.55 0.366,0.884 0,0.334 -0.13,0.647 -0.366,0.884 -0.293,0.292 -0.293,0.768 0,1.061 0.146,0.146 0.338,0.22 0.53,0.22 0.192,0 0.384,-0.073 0.53,-0.22 0.52,-0.519 0.806,-1.209 0.806,-1.944 0,-0.735 -0.286,-1.425 -0.806,-1.944 z M 11.35,1.567 C 10.95,1.348 10.461,1.364 10.077,1.611 L 4.782,5 H 2.25 C 1.009,5 0,6.009 0,7.25 v 3.5 C 0,11.991 1.009,13 2.25,13 h 2.531 l 5.295,3.389 c 0.205,0.131 0.439,0.198 0.675,0.198 0.206,0 0.412,-0.051 0.599,-0.153 C 11.751,16.215 12,15.794 12,15.337 V 2.664 C 12,2.207 11.751,1.787 11.35,1.567 Z"/></svg>
